Flat-Remix-Light/panel/indicator-keyboard-Be.svg

<svg xmlns="http://www.w3.org/2000/svg" width="22" height="22" version="1.1">
 <defs>
  <style id="current-color-scheme" type="text/css">
   .ColorScheme-Text { color:#31363b; } .ColorScheme-Highlight { color:#3daee9; }
  </style>
 </defs>
 <rect style="opacity:0" width="22" height="22" x="0" y="0"/>
 <path style="fill:none;stroke:currentColor;stroke-width:1.99999976;stroke-linecap:round;stroke-linejoin:bevel" class="ColorScheme-Text" d="m 4.9682627,10.988609 c 0,0 1.9999845,0.02271 2.9999844,0.02268 0.4072187,-2.5e-5 0.7411891,3.46e-4 1.0000009,3.46e-4 0.9999996,0 0.9999996,0 0.9999996,1 0,0.2561 0,0.574013 1e-6,0.977183 0,0.401652 -1e-6,0.758148 -1e-6,1.022817 0,0.999999 0,0.999999 -0.9999996,0.999999 -0.2542904,0 -0.6067264,-2.44e-4 -1.0000176,-2.44e-4 -0.9999998,0 -2.9999832,-0.02268 -2.9999832,-0.02268 m 1.137e-4,-8.000098 0,8 m -9.82e-5,-3.977325 1.9999845,-4e-6 c 2.0000001,0 2.0000001,0 2.0000178,-1.9999929 l -1.7e-5,-0.9996577 c 0,-1 0,-1 -0.9999998,-1 -0.2575597,0 -0.5967466,-3.479e-4 -1.000001,-3.471e-4 l -1.9999845,3.8e-6 m 9.82e-5,8.0000989 0,-8.0000007"/>
 <path style="fill:none;stroke:currentColor;stroke-width:1.99999976;stroke-linecap:round;stroke-linejoin:bevel" class="ColorScheme-Text" d="m 14,14.999898 4,0 m -4,-3.999998 4,0 m -4,-3.9999984 4,0 M 14.0001,15 l 0,-8.0000001"/>
</svg>

<svg xmlns="http://www.w3.org/2000/svg" width="12pt" height="12pt" version="1.1" viewBox="0 0 12 12">
 <g>
  <path style="fill:none;stroke-width:2;stroke-linecap:round;stroke-linejoin:bevel;stroke:rgb(19.215686%,21.176471%,23.137255%)" d="M 4.96875 10.992188 C 4.96875 10.992188 6.96875 11.007812 7.96875 11.007812 C 8.375 11.007812 8.710938 11.007812 8.96875 11.007812 C 9.96875 11.007812 9.96875 11.007812 9.96875 12.007812 C 9.96875 12.265625 9.96875 12.585938 9.96875 12.992188 C 9.96875 13.390625 9.96875 13.75 9.96875 14.007812 C 9.96875 15.007812 9.96875 15.007812 8.96875 15.007812 C 8.710938 15.007812 8.359375 15.007812 7.96875 15.007812 C 6.96875 15.007812 4.96875 14.992188 4.96875 14.992188 M 4.96875 6.992188 L 4.96875 14.992188 M 4.96875 11.007812 L 6.96875 11.007812 C 8.96875 11.007812 8.96875 11.007812 8.96875 9.007812 L 8.96875 8.007812 C 8.96875 7.007812 8.96875 7.007812 7.96875 7.007812 C 7.710938 7.007812 7.375 7.007812 6.96875 7.007812 L 4.96875 7.007812 M 4.96875 15.007812 L 4.96875 7.007812" transform="matrix(0.5,0,0,0.5,0.5,0.5)"/>
  <path style="fill:none;stroke-width:2;stroke-linecap:round;stroke-linejoin:bevel;stroke:rgb(19.215686%,21.176471%,23.137255%)" d="M 14 15 L 18 15 M 14 11 L 18 11 M 14 7 L 18 7 M 14 15 L 14 7" transform="matrix(0.5,0,0,0.5,0.5,0.5)"/>
 </g>
</svg>
